/* XPM */
static const char *basic1_NO[] = {
/* columns rows colors chars-per-pixel */
"202 202 50 1 ",
"  c black",
". c #000403",
"X c #000705",
"o c #000906",
"O c #000B08",
"+ c #000F0B",
"@ c #00130F",
"# c #001611",
"$ c #001813",
"% c #001914",
"& c #001C17",
"* c #001D18",
"= c #00211B",
"- c #00221C",
"; c #00251F",
": c #002922",
"> c #002B24",
", c #002D25",
"< c #00322A",
"1 c #00372E",
"2 c #00382F",
"3 c #003931",
"4 c #003C33",
"5 c #003E34",
"6 c #004036",
"7 c #004339",
"8 c #00453A",
"9 c #00463C",
"0 c #00483D",
"q c #004B40",
"w c #004D41",
"e c #004F44",
"r c #005044",
"t c #005447",
"y c #005649",
"u c #00584C",
"i c #005C4E",
"p c #005E51",
"a c #006052",
"s c #006355",
"d c #006657",
"f c #006658",
"g c #006859",
"h c #006B5C",
"j c #006D5D",
"k c #006F60",
"l c #007262",
"z c #E6E6E6",
"x c gray95",
"c c white",
/* pixels */
"cccccccccccccccccccccccccccccccccccccccccccccccccccccccccccccccccccccccccccccccccccccccccccccccccccccccccccccccccccccccccccccccccccccccccccccccccccccccccccccccccccccccccccccccccccccccccccccccccccccccccc",
"cllllllllllllllllllllllllllllllllllllllllllllllllllllllllllllllllllllllllllllllllllllllllllllllllllllllllllllllllllllllllllllllllllllllllllllllllllllllllllllllllllllllllllllllllllllllllllllllllllllllllx",
"cllllllllllllllllllllllllllllllllllllllllllllllllllllllllllllllllllllllllllllllllllllllllllllllllllllllllllllllllllllllllllllllllllllllllllllllllllllllllllllllllllllllllllllllllllllllllllllllllllllllllx",
"cllllllllllllllllllllllllllllllllllllllllllllllllllllllllllllllllllllllllllllllllllllllllllllllllllllllllllllllllllllllllllllllllllllllllllllllllllllllllllllllllllllllllllllllllllllllllllllllllllllllllx",
"cllllllllllllllllllllllllllllllllllllllllllllllllllllllllllllllllllllllllllllllllllllllllllllllllllllllllllllllllllllllllllllllllllllllllllllllllllllllllllllllllllllllllllllllllllllllllllllllllllllllllx",
"cllllllllllllllllllllllllllllllllllllllllllllllllllllllllllllllllllllllllllllllllllllllllllllllllllllllllllllllllllllllllllllllllllllllllllllllllllllllllllllllllllllllllllllllllllllllllllllllllllllllllx",
"cllllllllllllllllllllllllllllllllllllllllllllllllllllllllllllllllllllllllllllllllllllllllllllllllllllllllllllllllllllllllllllllllllllllllllllllllllllllllllllllllllllllllllllllllllllllllllllllllllllllllx",
"cllllllllllllllllllllllllllllllllllllllllllllllllllllllllllllllllllllllllllllllllllllllllllllllllllllllllllllllllllllllllllllllllllllllllllllllllllllllllllllllllllllllllllllllllllllllllllllllllllllllllx",
"cllllllllllllllllllllllllllllllllllllllllllllllllllllllllllllllllllllllllllllllllllllllllllllllllllllllllllllllllllllllllllllllllllllllllllllllllllllllllllllllllllllllllllllllllllllllllllllllllllllllllx",
"cllllllllllllllllllllllllllllllllllllllllllllllllllllllllllllllllllllllllllllllllllllllllllllllllllllllllllllllllllllllllllllllllllllllllllllllllllllllllllllllllllllllllllllllllllllllllllllllllllllllllx",
"cllllllllllllllllllllllllllllllllllllllllllllllllllllllllllllllllllllllllllllllllllllllllllllllllllllllllllllllllllllllllllllllllllllllllllllllllllllllllllllllllllllllllllllllllllllllllllllllllllllllllx",
"cllllllllllllllllllllllllllllllllllllllllllllllllllllllllllllllllllllllllllllllllllllllllllllllllllllllllllllllllllllllllllllllllllllllllllllllllllllllllllllllllllllllllllllllllllllllllllllllllllllllllx",
"cllllllllllllllllllllllllllllllllllllllllllllllllllllllllllllllllllllllllllllllllllllllllllllllllllllllllllllllllllllllllllllllllllllllllllllllllllllllllllllllllllllllllllllllllllllllllllllllllllllllllx",
"cllllllllllllllllllllllllllllllllllllllllllllllllllllllllllllllllllllllllllllllllllllllllllllllllllllllllllllllllllllllllllllllllllllllllllllllllllllllllllllllllllllllllllllllllllllllllllllllllllllllllx",
"cllllllllllllllllllllllllllllllllllllllllllllllllllllllllllllllllllllllllllllllllllllllllllllllllllllllllllllllllllllllllllllllllllllllllllllllllllllllllllllllllllllllllllllllllllllllllllllllllllllllllx",
"cllllllllllllllllllllllllllllllllllllllllllllllllllllllllllllllllllllllllllllllllllllllllllllllllllllllllllllllllllllllllllllllllllllllllllllllllllllllllllllllllllllllllllllllllllllllllllllllllllllllllx",
"cllllllllllllllllllllllllllllllllllllllllllllllllllllllllllllllllllllllllllllllllllllllllllllllllllllllllllllllllllllllllllllllllllllllllllllllllllllllllllllllllllllllllllllllllllllllllllllllllllllllllx",
"cllllllllllllllllllllllllllllllllllllllllllllllllllllllllllllllllllllllllllllllllllllllllllllllllllllllllllllllllllllllllllllllllllllllllllllllllllllllllllllllllllllllllllllllllllllllllllllllllllllllllx",
"cllllllllllllllllllllllllllllllllllllllllllllllllllllllllllllllllllllllllllllllllllllllllllllllllllllllllllllllllllllllllllllllllllllllllllllllllllllllllllllllllllllllllllllllllllllllllllllllllllllllllx",
"cllllllllllllllllllllllllllllllllllllllllllllllllllllllllllllllllllllllllllllllllllllllllllllllllllllllllllllllllllllllllllllllllllllllllllllllllllllllllllllllllllllllllllllllllllllllllllllllllllllllllx",
"cllllllllllllllllllllllllllllllllllllllllllllllllllllllllllllllllllllllllllllllllllllllllllllllllllllllllllllllllllllllllllllllllllllllllllllllllllllllllllllllllllllllllllllllllllllllllllllllllllllllllx",
"cllllllllllllllllllllllllllllllllllllllllllllllllllllllllllllllllllllllllllllllllllllllllllllllllllllllllllllllllllllllllllllllllllllllllllllllllllllllllllllllllllllllllllllllllllllllllllllllllllllllllx",
"cllllllllllllllllllllllllllllllllllllllllllllllllllllllllllllllllllllllllllllllllllllllllllllllllllllllllllllllllllllllllllllllllllllllllllllllllllllllllllllllllllllllllllllllllllllllllllllllllllllllllx",
"cllllllllllllllllllllllllllllllllllllllllllllllllllllllllllllllllllllllllllllllllllllllllllllllllllllllllllllllllllllllllllllllllllllllllllllllllllllllllllllllllllllllllllllllllllllllllllllllllllllllllx",
"cllllllllllllllllllllllllllllllllllllllllllllllllllllllllllllllllllllllllllllllllllllllllllllllllllllllllllllllllllllllllllllllllllllllllllllllllllllllllllllllllllllllllllllllllllllllllllllllllllllllllx",
"cllllllllllllllllllllllllllllllllllllllllllllllllllllllllllllllllllllllllllllllllllllllllllllllllllllllllllllllllllllllllllllllllllllllllllllllllllllllllllllllllllllllllllllllllllllllllllllllllllllllllx",
"cllllllllllllllllllllllllllllllllllllllllllllllllllllllllllllllllllllllllllllllllllllllllllllllllllllllllllllllllllllllllllllllllllllllllllllllllllllllllllllllllllllllllllllllllllllllllllllllllllllllllx",
"cllllllllllllllllllllllllllllllllllllllllllllllllllllllllllllllllllllllllllllllllllllllllllllllllllllllllllllllllllllllllllllllllllllllllllllllllllllllllllllllllllllllllllllllllllllllllllllllllllllllllx",
"cllllllllllllllllllllllllllllllllllllllllllllllllllllllllllllllllllllllllllllllllllllllllllllllllllllllllllllllllllllllllllllllllllllllllllllllllllllllllllllllllllllllllllllllllllllllllllllllllllllllllx",
"cllllllllllllllllllllllllllllllllllllllllllllllllllllllllllllllllllllllllllllllllllllllllllllllllllllllllllllllllllllllllllllllllllllllllllllllllllllllllllllllllllllllllllllllllllllllllllllllllllllllllx",
"cllllllllllllllllllllllllllllllllllllllllllllllllllllllllllllllllllllllllllllllllllllllllllllllllllllllllllllllllllllllllllllllllllllllllllllllllllllllllllllllllllllllllllllllllllllllllllllllllllllllllx",
"cllllllllllllllllllllllllllllllllllllllllllllllllllllllllllllllllllllllllllllllllllllllllllllllllllllllllllllllllllllllllllllllllllllllllllllllllllllllllllllllllllllllllllllllllllllllllllllllllllllllllx",
"cllllllllllllllllllllllllllllllllllllllllllllllllllllllllllllllllllllllllllllllllllllllllllllllllllllllllllllllllllllllllllllllllllllllllllllllllllllllllllllllllllllllllllllllllllllllllllllllllllllllllx",
"cllllllllllllllllllllllllllllllllllllllllllllllllllllllllllllllllllllllllllllllllllllllllllllllllllllllllllllllllllllllllllllllllllllllllllllllllllllllllllllllllllllllllllllllllllllllllllllllllllllllllx",
"cllllllllllllllllllllllllllllllllllllllllllllllllllllllllllllllllllllllllllllllllllllllllllllllllllllllllllllllllllllllllllllllllllllllllllllllllllllllllllllllllllllllllllllllllllllllllllllllllllllllllx",
"cllllllllllllllllllllllllllllllllllllllllllllllllllllllllllllllllllllllllllllllllllllllllllllllllllllllllllllllllllllllllllllllllllllllllllllllllllllllllllllllllllllllllllllllllllllllllllllllllllllllllx",
"cllllllllllllllllllllllllllllllllllllllllllllllllllllllllllllllllllllllllllllllllllllllllllllllllllllllllllllllllllllllllllllllllllllllllllllllllllllllllllllllllllllllllllllllllllllllllllllllllllllllllx",
"cllllllllllllllllllllllllllllllllllllllllllllllllllllllllllllllllllllllllllllllllllllllllllllllllllllllllllllllllllllllllllllllllllllllllllllllllllllllllllllllllllllllllllllllllllllllllllllllllllllllllx",
"cllllllllllllllllllllllllllllllllllllllllllllllllllllllllllllllllllllllllllllllllllllllllllllllllllllllllllllllllllllllllllllllllllllllllllllllllllllllllllllllllllllllllllllllllllllllllllllllllllllllllx",
"cllllllllllllllllllllllllllllllllllllllllllllllllllllllllllllllllllllllllllllllllllllllllllllllllllllllllllllllllllllllllllllllllllllllllllllllllllllllllllllllllllllllllllllllllllllllllllllllllllllllllx",
"cllllllllllllllllllllllllllllllllllllllllllllllllllllllllllllllllllllllllllllllllllllllllllllllllllllllllllllllllllllllllllllllllllllllllllllllllllllllllllllllllllllllllllllllllllllllllllllllllllllllllx",
"cllllllllllllllllllllllllllllllllllllllllllllllllllllllllllllllllllllllllllllllllllllllllllllllllllllllllllllllllllllllllllllllllllllllllllllllllllllllllllllllllllllllllllllllllllllllllllllllllllllllllx",
"cllllllllllllllllllllllllllllllllllllllllllllllllllllllllllllllllllllllllllllllllllllllllllllllllllllllllllllllllllllllllllllllllllllllllllllllllllllllllllllllllllllllllllllllllllllllllllllllllllllllllx",
"cllllllllllllllllllllllllllllllllllllllllllllllllllllllllllllllllllllllllllllllllllllllllllllllllllllllllllllllllllllllllllllllllllllllllllllllllllllllllllllllllllllllllllllllllllllllllllllllllllllllllx",
"cllllllllllllllllllllllllllllllllllllllllllllllllllllllllllllllllllllllllllllllllllllllllllllllllllllllllllllllllllllllllllllllllllllllllllllllllllllllllllllllllllllllllllllllllllllllllllllllllllllllllx",
"cllllllllllllllllllllllllllllllllllllllllllllllllllllllllllllllllllllllllllllllllllllllllllllllllllllllllllllllllllllllllllllllllllllllllllllllllllllllllllllllllllllllllllllllllllllllllllllllllllllllllx",
"cllllllllllllllllllllllllllllllllllllllllllllllllllllllllllllllllllllllllllllllllllllllllllllllllllllllllllllllllllllllllllllllllllllllllllllllllllllllllllllllllllllllllllllllllllllllllllllllllllllllllx",
"cllllllllllllllllllllllllllllllllllllllllllllllllllllllllllllllllllllllllllllllllllllllllllllllllllllllllllllllllllllllllllllllllllllllllllllllllllllllllllllllllllllllllllllllllllllllllllllllllllllllllx",
"cllllllllllllllllllllllllllllllllllllllllllllllllllllllllllllllllllllllllllllllllllllllllllllllllllllllllllllllllllllllllllllllllllllllllllllllllllllllllllllllllllllllllllllllllllllllllllllllllllllllllx",
"cllllllllllllllllllllllllllllllllllllllllllllllllllllllllllllllllllllllllllllllllllllllllllllllllllllllllllllllllllllllllllllllllllllllllllllllllllllllllllllllllllllllllllllllllllllllllllllllllllllllllx",
"cllllllllllllllllllllllllllllllllllllllllllllllllllllllllllllllllllllllllllllllllllllllllllllllllllllllllllllllllllllllllllllllllllllllllllllllllllllllllllllllllllllllllllllllllllllllllllllllllllllllllx",
"cllllllllllllllllllllllllllllllllllllllllllllllllllllllllllllllllllllllllllllllllllllllllllllllllllllllllllllllllllllllllllllllllllllllllllllllllllllllllllllllllllllllllllllllllllllllllllllllllllllllllx",
"cllllllllllllllllllllllllllllllllllllllllllllllllllllllllllllllllllllllllllllllllllllllllllllllllllllllllllllllllllllllllllllllllllllllllllllllllllllllllllllllllllllllllllllllllllllllllllllllllllllllllx",
"cllllllllllllllllllllllllllllllllllllllllllllllllllllllllllllllllllllllllllllllllllllllllllllllllllllllllllllllllllllllllllllllllllllllllllllllllllllllllllllllllllllllllllllllllllllllllllllllllllllllllx",
"cllllllllllllllllllllllllllllllllllllllllllllllllllllllllllllllllllllllllllllllllllllllllllllllllllllllllllllllllllllllllllllllllllllllllllllllllllllllllllllllllllllllllllllllllllllllllllllllllllllllllx",
"cllllllllllllllllllllllllllllllllllllllllllllllllllllllllllllllllllllllllllllllllllllllllllllllllllllllllllllllllllllllllllllllllllllllllllllllllllllllllllllllllllllllllllllllllllllllllllllllllllllllllx",
"cllllllllllllllllllllllllllllllllllllllllllllllllllllllllllllllllllllllllllllllllllllllllllllllllllllllllllllllllllllllllllllllllllllllllllllllllllllllllllllllllllllllllllllllllllllllllllllllllllllllllx",
"cllllllllllllllllllllllllllllllllllllllllllllllllllllllllllllllllllllllllllllllllllllllllllllllllllllllllllllllllllllllllllllllllllllllllllllllllllllllllllllllllllllllllllllllllllllllllllllllllllllllllx",
"cllllllllllllllllllllllllllllllllllllllllllllllllllllllllllllllllllllllllllllllllllllllllllllllllllllllllllllllllllllllllllllllllllllllllllllllllllllllllllllllllllllllllllllllllllllllllllllllllllllllllx",
"cllllllllllllllllllllllllllllllllllllllllllllllllllllllllllllllllllllllllllllllllllllllllllllllllllllllllllllllllllllllllllllllllllllllllllllllllllllllllllllllllllllllllllllllllllllllllllllllllllllllllx",
"cllllllllllllllllllllllllllllllllllllllllllllllllllllllllllllllllllllllllllllllllllllllllllllllllllllllllllllllllllllllllllllllllllllllllllllllllllllllllllllllllllllllllllllllllllllllllllllllllllllllllx",
"cllllllllllllllllllllllllllllllllllllllllllllllllllllllllllllllllllllllllllllllllllllllllllllllllllllllllllllllllllllllllllllllllllllllllllllllllllllllllllllllllllllllllllllllllllllllllllllllllllllllllx",
"cllllllllllllllllllllllllllllllllllllllllllllllllllllllllllllllllllllllllllllllllllllllllllllllllllllllllllllllllllllllllllllllllllllllllllllllllllllllllllllllllllllllllllllllllllllllllllllllllllllllllx",
"cllllllllllllllllllllllllllllllllllllllllllllllllllllllllllllllllllllllllllllllllllllllllllllllllllllllllllllllllllllllllllllllllllllllllllllllllllllllllllllllllllllllllllllllllllllllllllllllllllllllllx",
"cllllllllllllllllllllllllllllllllllllllllllllllllllllllllllllllllllllllllllllllllllllllllllllllllllllllllllllllllllllllllllllllllllllllllllllllllllllllllllllllllllllllllllllllllllllllllllllllllllllllllx",
"cllllllllllllllllllllllllllllllllllllllllllllllllllllllllllllllllllllllllllllllllllllllllllllllllllllllllllllllllllllllllllllllllllllllllllllllllllllllllllllllllllllllllllllllllllllllllllllllllllllllllx",
"cllllllllllllllllllllllllllllllllllllllllllllllllllllllllllllllllllllk          7lllllllllllllllllllllllllllllllllllll,       wllllllllllllllllllllllllllllllllllllllllllllllllllllllllllllllllllllllllllx",
"cllllllllllllllllllllllllllllllllllllllllllllllllllllllllllllllllllllk           allllllllllllllllllllllllllllllllllll,       wllllllllllllllllllllllllllllllllllllllllllllllllllllllllllllllllllllllllllx",
"cllllllllllllllllllllllllllllllllllllllllllllllllllllllllllllllllllllk           -jlllllllllllllllllllllllllllllllllll,       wllllllllllllllllllllllllllllllllllllllllllllllllllllllllllllllllllllllllllx",
"cllllllllllllllllllllllllllllllllllllllllllllllllllllllllllllllllllllk            0lllllllllllllllllllllllllllllllllll,       wllllllllllllllllllllllllllllllllllllllllllllllllllllllllllllllllllllllllllx",
"cllllllllllllllllllllllllllllllllllllllllllllllllllllllllllllllllllllk             dllllllllllllllllllllllllllllllllll,       wllllllllllllllllllllllllllllllllllllllllllllllllllllllllllllllllllllllllllx",
"cllllllllllllllllllllllllllllllllllllllllllllllllllllllllllllllllllllk             >llllllllllllllllllllllllllllllllll,       wllllllllllllllllllllllllllllllllllllllllllllllllllllllllllllllllllllllllllx",
"cllllllllllllllllllllllllllllllllllllllllllllllllllllllllllllllllllllk              elllllllllllllllllllllllllllllllll,       wllllllllllllllllllllllllllllllllllllllllllllllllllllllllllllllllllllllllllx",
"cllllllllllllllllllllllllllllllllllllllllllllllllllllllllllllllllllllk              ofllllllllllllllllllllllllllllllll,       wllllllllllllllllllllllllllllllllllllllllllllllllllllllllllllllllllllllllllx",
"cllllllllllllllllllllllllllllllllllllllllllllllllllllllllllllllllllllk               <llllllllllllllllllllllllllllllll,       wllllllllllllllllllllllllllllllllllllllllllllllllllllllllllllllllllllllllllx",
"cllllllllllllllllllllllllllllllllllllllllllllllllllllllllllllllllllllk                ylllllllllllllllllllllllllllllll,       wllllllllllllllllllllllllllllllllllllllllllllllllllllllllllllllllllllllllllx",
"cllllllllllllllllllllllllllllllllllllllllllllllllllllllllllllllllllllk                @gllllllllllllllllllllllllllllll,       wllllllllllllllllllllllllllllllllllllllllllllllllllllllllllllllllllllllllllx",
"cllllllllllllllllllllllllllllllllllllllllllllllllllllllllllllllllllllk                 3llllllllllllllllllllllllllllll,       wllllllllllllllllllllllllllllllllllllllllllllllllllllllllllllllllllllllllllx",
"cllllllllllllllllllllllllllllllllllllllllllllllllllllllllllllllllllllk       9*         ulllllllllllllllllllllllllllll,       wllllllllllllllllllllllllllllllllllllllllllllllllllllllllllllllllllllllllllx",
"cllllllllllllllllllllllllllllllllllllllllllllllllllllllllllllllllllllk       ri         %jllllllllllllllllllllllllllll,       wllllllllllllllllllllllllllllllllllllllllllllllllllllllllllllllllllllllllllx",
"cllllllllllllllllllllllllllllllllllllllllllllllllllllllllllllllllllllk       ql4         6llllllllllllllllllllllllllll,       wllllllllllllllllllllllllllllllllllllllllllllllllllllllllllllllllllllllllllx",
"cllllllllllllllllllllllllllllllllllllllllllllllllllllllllllllllllllllk       9lh@         plllllllllllllllllllllllllll,       wllllllllllllllllllllllllllllllllllllllllllllllllllllllllllllllllllllllllllx",
"cllllllllllllllllllllllllllllllllllllllllllllllllllllllllllllllllllllk       6lly         =jllllllllllllllllllllllllll,       wllllllllllllllllllllllllllllllllllllllllllllllllllllllllllllllllllllllllllx",
"cllllllllllllllllllllllllllllllllllllllllllllllllllllllllllllllllllllk       3lll<         9llllllllllllllllllllllllll,       wllllllllllllllllllllllllllllllllllllllllllllllllllllllllllllllllllllllllllx",
"cllllllllllllllllllllllllllllllllllllllllllllllllllllllllllllllllllllk       <lllfo         slllllllllllllllllllllllll,       wllllllllllllllllllllllllllllllllllllllllllllllllllllllllllllllllllllllllllx",
"cllllllllllllllllllllllllllllllllllllllllllllllllllllllllllllllllllllk       :lllle         :lllllllllllllllllllllllll,       wllllllllllllllllllllllllllllllllllllllllllllllllllllllllllllllllllllllllllx",
"cllllllllllllllllllllllllllllllllllllllllllllllllllllllllllllllllllllk       *lllll>         wllllllllllllllllllllllll,       wllllllllllllllllllllllllllllllllllllllllllllllllllllllllllllllllllllllllllx",
"cllllllllllllllllllllllllllllllllllllllllllllllllllllllllllllllllllllk       +llllls         .dlllllllllllllllllllllll,       wllllllllllllllllllllllllllllllllllllllllllllllllllllllllllllllllllllllllllx",
"cllllllllllllllllllllllllllllllllllllllllllllllllllllllllllllllllllllk        llllll0         <lllllllllllllllllllllll,       wllllllllllllllllllllllllllllllllllllllllllllllllllllllllllllllllllllllllllx",
"cllllllllllllllllllllllllllllllllllllllllllllllllllllllllllllllllllllk        jlllllj-         rllllllllllllllllllllll,       wllllllllllllllllllllllllllllllllllllllllllllllllllllllllllllllllllllllllllx",
"cllllllllllllllllllllllllllllllllllllllllllllllllllllllllllllllllllllk        jllllllp         +glllllllllllllllllllll,       wllllllllllllllllllllllllllllllllllllllllllllllllllllllllllllllllllllllllllx",
"cllllllllllllllllllllllllllllllllllllllllllllllllllllllllllllllllllllk        glllllll6         1lllllllllllllllllllll,       wllllllllllllllllllllllllllllllllllllllllllllllllllllllllllllllllllllllllllx",
"cllllllllllllllllllllllllllllllllllllllllllllllllllllllllllllllllllllk        glllllllj$         yllllllllllllllllllll,       wllllllllllllllllllllllllllllllllllllllllllllllllllllllllllllllllllllllllllx",
"cllllllllllllllllllllllllllllllllllllllllllllllllllllllllllllllllllllk        fllllllllu         #hlllllllllllllllllll,       wllllllllllllllllllllllllllllllllllllllllllllllllllllllllllllllllllllllllllx",
"cllllllllllllllllllllllllllllllllllllllllllllllllllllllllllllllllllllk        flllllllll2         5lllllllllllllllllll,       wllllllllllllllllllllllllllllllllllllllllllllllllllllllllllllllllllllllllllx",
"cllllllllllllllllllllllllllllllllllllllllllllllllllllllllllllllllllllk        dlllllllllg+         illllllllllllllllll,       wllllllllllllllllllllllllllllllllllllllllllllllllllllllllllllllllllllllllllx",
"cllllllllllllllllllllllllllllllllllllllllllllllllllllllllllllllllllllk        dllllllllllr         *jlllllllllllllllll,       wllllllllllllllllllllllllllllllllllllllllllllllllllllllllllllllllllllllllllx",
"cllllllllllllllllllllllllllllllllllllllllllllllllllllllllllllllllllllk        dlllllllllll,         8lllllllllllllllll,       wllllllllllllllllllllllllllllllllllllllllllllllllllllllllllllllllllllllllllx",
"cllllllllllllllllllllllllllllllllllllllllllllllllllllllllllllllllllllk        sllllllllllld.         allllllllllllllll,       wllllllllllllllllllllllllllllllllllllllllllllllllllllllllllllllllllllllllllx",
"cllllllllllllllllllllllllllllllllllllllllllllllllllllllllllllllllllllk        sllllllllllllq         ;klllllllllllllll,       wllllllllllllllllllllllllllllllllllllllllllllllllllllllllllllllllllllllllllx",
"cllllllllllllllllllllllllllllllllllllllllllllllllllllllllllllllllllllk        sllllllllllllk;         qlllllllllllllll,       wllllllllllllllllllllllllllllllllllllllllllllllllllllllllllllllllllllllllllx",
"cllllllllllllllllllllllllllllllllllllllllllllllllllllllllllllllllllllk        sllllllllllllla          dllllllllllllll,       wllllllllllllllllllllllllllllllllllllllllllllllllllllllllllllllllllllllllllx",
"cllllllllllllllllllllllllllllllllllllllllllllllllllllllllllllllllllllk        sllllllllllllll7         ,llllllllllllll,       wllllllllllllllllllllllllllllllllllllllllllllllllllllllllllllllllllllllllllx",
"cllllllllllllllllllllllllllllllllllllllllllllllllllllllllllllllllllllk        sllllllllllllllj&         rlllllllllllll,       wllllllllllllllllllllllllllllllllllllllllllllllllllllllllllllllllllllllllllx",
"cllllllllllllllllllllllllllllllllllllllllllllllllllllllllllllllllllllk        slllllllllllllllu         Ogllllllllllll,       wllllllllllllllllllllllllllllllllllllllllllllllllllllllllllllllllllllllllllx",
"cllllllllllllllllllllllllllllllllllllllllllllllllllllllllllllllllllllk        sllllllllllllllll3         1llllllllllll,       wllllllllllllllllllllllllllllllllllllllllllllllllllllllllllllllllllllllllllx",
"cllllllllllllllllllllllllllllllllllllllllllllllllllllllllllllllllllllk        sllllllllllllllllg@         ylllllllllll,       wllllllllllllllllllllllllllllllllllllllllllllllllllllllllllllllllllllllllllx",
"cllllllllllllllllllllllllllllllllllllllllllllllllllllllllllllllllllllk        sllllllllllllllllly         @gllllllllll,       wllllllllllllllllllllllllllllllllllllllllllllllllllllllllllllllllllllllllllx",
"cllllllllllllllllllllllllllllllllllllllllllllllllllllllllllllllllllllk        sllllllllllllllllll<         3llllllllll<       wllllllllllllllllllllllllllllllllllllllllllllllllllllllllllllllllllllllllllx",
"cllllllllllllllllllllllllllllllllllllllllllllllllllllllllllllllllllllk        sllllllllllllllllllfX         ulllllllll<       wllllllllllllllllllllllllllllllllllllllllllllllllllllllllllllllllllllllllllx",
"cllllllllllllllllllllllllllllllllllllllllllllllllllllllllllllllllllllk        slllllllllllllllllllw         %jllllllll1       wllllllllllllllllllllllllllllllllllllllllllllllllllllllllllllllllllllllllllx",
"cllllllllllllllllllllllllllllllllllllllllllllllllllllllllllllllllllllk        sllllllllllllllllllll:         7llllllll3       wllllllllllllllllllllllllllllllllllllllllllllllllllllllllllllllllllllllllllx",
"cllllllllllllllllllllllllllllllllllllllllllllllllllllllllllllllllllllk        slllllllllllllllllllls          plllllll4       wllllllllllllllllllllllllllllllllllllllllllllllllllllllllllllllllllllllllllx",
"cllllllllllllllllllllllllllllllllllllllllllllllllllllllllllllllllllllk        slllllllllllllllllllll9         -jllllll6       wllllllllllllllllllllllllllllllllllllllllllllllllllllllllllllllllllllllllllx",
"cllllllllllllllllllllllllllllllllllllllllllllllllllllllllllllllllllllk        slllllllllllllllllllllj=         0llllll8       wllllllllllllllllllllllllllllllllllllllllllllllllllllllllllllllllllllllllllx",
"cllllllllllllllllllllllllllllllllllllllllllllllllllllllllllllllllllllk        sllllllllllllllllllllllp          slllll0       wllllllllllllllllllllllllllllllllllllllllllllllllllllllllllllllllllllllllllx",
"cllllllllllllllllllllllllllllllllllllllllllllllllllllllllllllllllllllk        slllllllllllllllllllllll5         :lllllw       wllllllllllllllllllllllllllllllllllllllllllllllllllllllllllllllllllllllllllx",
"cllllllllllllllllllllllllllllllllllllllllllllllllllllllllllllllllllllk        slllllllllllllllllllllllj#         wlllle       wllllllllllllllllllllllllllllllllllllllllllllllllllllllllllllllllllllllllllx",
"cllllllllllllllllllllllllllllllllllllllllllllllllllllllllllllllllllllk        slllllllllllllllllllllllly         Xflllr       wllllllllllllllllllllllllllllllllllllllllllllllllllllllllllllllllllllllllllx",
"cllllllllllllllllllllllllllllllllllllllllllllllllllllllllllllllllllllk        slllllllllllllllllllllllll1         <llly       wllllllllllllllllllllllllllllllllllllllllllllllllllllllllllllllllllllllllllx",
"cllllllllllllllllllllllllllllllllllllllllllllllllllllllllllllllllllllk        slllllllllllllllllllllllllgO         tllu       wllllllllllllllllllllllllllllllllllllllllllllllllllllllllllllllllllllllllllx",
"cllllllllllllllllllllllllllllllllllllllllllllllllllllllllllllllllllllk        sllllllllllllllllllllllllllr         +glp       wllllllllllllllllllllllllllllllllllllllllllllllllllllllllllllllllllllllllllx",
"cllllllllllllllllllllllllllllllllllllllllllllllllllllllllllllllllllllk        slllllllllllllllllllllllllll,         3la       wllllllllllllllllllllllllllllllllllllllllllllllllllllllllllllllllllllllllllx",
"cllllllllllllllllllllllllllllllllllllllllllllllllllllllllllllllllllllk        sllllllllllllllllllllllllllld          ud       wllllllllllllllllllllllllllllllllllllllllllllllllllllllllllllllllllllllllllx",
"cllllllllllllllllllllllllllllllllllllllllllllllllllllllllllllllllllllk        sllllllllllllllllllllllllllll0         #a       wllllllllllllllllllllllllllllllllllllllllllllllllllllllllllllllllllllllllllx",
"cllllllllllllllllllllllllllllllllllllllllllllllllllllllllllllllllllllk        sllllllllllllllllllllllllllllj;         #       wllllllllllllllllllllllllllllllllllllllllllllllllllllllllllllllllllllllllllx",
"cllllllllllllllllllllllllllllllllllllllllllllllllllllllllllllllllllllk        sllllllllllllllllllllllllllllla                 wllllllllllllllllllllllllllllllllllllllllllllllllllllllllllllllllllllllllllx",
"cllllllllllllllllllllllllllllllllllllllllllllllllllllllllllllllllllllk        sllllllllllllllllllllllllllllll7                wllllllllllllllllllllllllllllllllllllllllllllllllllllllllllllllllllllllllllx",
"cllllllllllllllllllllllllllllllllllllllllllllllllllllllllllllllllllllk        sllllllllllllllllllllllllllllllj%               wllllllllllllllllllllllllllllllllllllllllllllllllllllllllllllllllllllllllllx",
"cllllllllllllllllllllllllllllllllllllllllllllllllllllllllllllllllllllk        slllllllllllllllllllllllllllllllu               wllllllllllllllllllllllllllllllllllllllllllllllllllllllllllllllllllllllllllx",
"cllllllllllllllllllllllllllllllllllllllllllllllllllllllllllllllllllllk        sllllllllllllllllllllllllllllllll3              wllllllllllllllllllllllllllllllllllllllllllllllllllllllllllllllllllllllllllx",
"cllllllllllllllllllllllllllllllllllllllllllllllllllllllllllllllllllllk        sllllllllllllllllllllllllllllllllg@             wllllllllllllllllllllllllllllllllllllllllllllllllllllllllllllllllllllllllllx",
"cllllllllllllllllllllllllllllllllllllllllllllllllllllllllllllllllllllk        sllllllllllllllllllllllllllllllllly             wllllllllllllllllllllllllllllllllllllllllllllllllllllllllllllllllllllllllllx",
"cllllllllllllllllllllllllllllllllllllllllllllllllllllllllllllllllllllk        sllllllllllllllllllllllllllllllllll<            wllllllllllllllllllllllllllllllllllllllllllllllllllllllllllllllllllllllllllx",
"cllllllllllllllllllllllllllllllllllllllllllllllllllllllllllllllllllllk        sllllllllllllllllllllllllllllllllllfX           wllllllllllllllllllllllllllllllllllllllllllllllllllllllllllllllllllllllllllx",
"cllllllllllllllllllllllllllllllllllllllllllllllllllllllllllllllllllllk        slllllllllllllllllllllllllllllllllllw           wllllllllllllllllllllllllllllllllllllllllllllllllllllllllllllllllllllllllllx",
"cllllllllllllllllllllllllllllllllllllllllllllllllllllllllllllllllllllk        sllllllllllllllllllllllllllllllllllll:          wllllllllllllllllllllllllllllllllllllllllllllllllllllllllllllllllllllllllllx",
"cllllllllllllllllllllllllllllllllllllllllllllllllllllllllllllllllllllk        slllllllllllllllllllllllllllllllllllls          wllllllllllllllllllllllllllllllllllllllllllllllllllllllllllllllllllllllllllx",
"cllllllllllllllllllllllllllllllllllllllllllllllllllllllllllllllllllllllllllllllllllllllllllllllllllllllllllllllllllllllllllllllllllllllllllllllllllllllllllllllllllllllllllllllllllllllllllllllllllllllllx",
"cllllllllllllllllllllllllllllllllllllllllllllllllllllllllllllllllllllllllllllllllllllllllllllllllllllllllllllllllllllllllllllllllllllllllllllllllllllllllllllllllllllllllllllllllllllllllllllllllllllllllx",
"cllllllllllllllllllllllllllllllllllllllllllllllllllllllllllllllllllllllllllllllllllllllllllllllllllllllllllllllllllllllllllllllllllllllllllllllllllllllllllllllllllllllllllllllllllllllllllllllllllllllllx",
"cllllllllllllllllllllllllllllllllllllllllllllllllllllllllllllllllllllllllllllllllllllllllllllllllllllllllllllllllllllllllllllllllllllllllllllllllllllllllllllllllllllllllllllllllllllllllllllllllllllllllx",
"cllllllllllllllllllllllllllllllllllllllllllllllllllllllllllllllllllllllllllllllllllllllllllllllllllllllllllllllllllllllllllllllllllllllllllllllllllllllllllllllllllllllllllllllllllllllllllllllllllllllllx",
"cllllllllllllllllllllllllllllllllllllllllllllllllllllllllllllllllllllllllllllllllllllllllllllllllllllllllllllllllllllllllllllllllllllllllllllllllllllllllllllllllllllllllllllllllllllllllllllllllllllllllx",
"cllllllllllllllllllllllllllllllllllllllllllllllllllllllllllllllllllllllllllllllllllllllllllllllllllllllllllllllllllllllllllllllllllllllllllllllllllllllllllllllllllllllllllllllllllllllllllllllllllllllllx",
"cllllllllllllllllllllllllllllllllllllllllllllllllllllllllllllllllllllllllllllllllllllllllllllllllllllllllllllllllllllllllllllllllllllllllllllllllllllllllllllllllllllllllllllllllllllllllllllllllllllllllx",
"cllllllllllllllllllllllllllllllllllllllllllllllllllllllllllllllllllllllllllllllllllllllllllllllllllllllllllllllllllllllllllllllllllllllllllllllllllllllllllllllllllllllllllllllllllllllllllllllllllllllllx",
"cllllllllllllllllllllllllllllllllllllllllllllllllllllllllllllllllllllllllllllllllllllllllllllllllllllllllllllllllllllllllllllllllllllllllllllllllllllllllllllllllllllllllllllllllllllllllllllllllllllllllx",
"cllllllllllllllllllllllllllllllllllllllllllllllllllllllllllllllllllllllllllllllllllllllllllllllllllllllllllllllllllllllllllllllllllllllllllllllllllllllllllllllllllllllllllllllllllllllllllllllllllllllllx",
"cllllllllllllllllllllllllllllllllllllllllllllllllllllllllllllllllllllllllllllllllllllllllllllllllllllllllllllllllllllllllllllllllllllllllllllllllllllllllllllllllllllllllllllllllllllllllllllllllllllllllx",
"cllllllllllllllllllllllllllllllllllllllllllllllllllllllllllllllllllllllllllllllllllllllllllllllllllllllllllllllllllllllllllllllllllllllllllllllllllllllllllllllllllllllllllllllllllllllllllllllllllllllllx",
"cllllllllllllllllllllllllllllllllllllllllllllllllllllllllllllllllllllllllllllllllllllllllllllllllllllllllllllllllllllllllllllllllllllllllllllllllllllllllllllllllllllllllllllllllllllllllllllllllllllllllx",
"cllllllllllllllllllllllllllllllllllllllllllllllllllllllllllllllllllllllllllllllllllllllllllllllllllllllllllllllllllllllllllllllllllllllllllllllllllllllllllllllllllllllllllllllllllllllllllllllllllllllllx",
"cllllllllllllllllllllllllllllllllllllllllllllllllllllllllllllllllllllllllllllllllllllllllllllllllllllllllllllllllllllllllllllllllllllllllllllllllllllllllllllllllllllllllllllllllllllllllllllllllllllllllx",
"cllllllllllllllllllllllllllllllllllllllllllllllllllllllllllllllllllllllllllllllllllllllllllllllllllllllllllllllllllllllllllllllllllllllllllllllllllllllllllllllllllllllllllllllllllllllllllllllllllllllllx",
"cllllllllllllllllllllllllllllllllllllllllllllllllllllllllllllllllllllllllllllllllllllllllllllllllllllllllllllllllllllllllllllllllllllllllllllllllllllllllllllllllllllllllllllllllllllllllllllllllllllllllx",
"cllllllllllllllllllllllllllllllllllllllllllllllllllllllllllllllllllllllllllllllllllllllllllllllllllllllllllllllllllllllllllllllllllllllllllllllllllllllllllllllllllllllllllllllllllllllllllllllllllllllllx",
"cllllllllllllllllllllllllllllllllllllllllllllllllllllllllllllllllllllllllllllllllllllllllllllllllllllllllllllllllllllllllllllllllllllllllllllllllllllllllllllllllllllllllllllllllllllllllllllllllllllllllx",
"cllllllllllllllllllllllllllllllllllllllllllllllllllllllllllllllllllllllllllllllllllllllllllllllllllllllllllllllllllllllllllllllllllllllllllllllllllllllllllllllllllllllllllllllllllllllllllllllllllllllllx",
"cllllllllllllllllllllllllllllllllllllllllllllllllllllllllllllllllllllllllllllllllllllllllllllllllllllllllllllllllllllllllllllllllllllllllllllllllllllllllllllllllllllllllllllllllllllllllllllllllllllllllx",
"cllllllllllllllllllllllllllllllllllllllllllllllllllllllllllllllllllllllllllllllllllllllllllllllllllllllllllllllllllllllllllllllllllllllllllllllllllllllllllllllllllllllllllllllllllllllllllllllllllllllllx",
"cllllllllllllllllllllllllllllllllllllllllllllllllllllllllllllllllllllllllllllllllllllllllllllllllllllllllllllllllllllllllllllllllllllllllllllllllllllllllllllllllllllllllllllllllllllllllllllllllllllllllx",
"cllllllllllllllllllllllllllllllllllllllllllllllllllllllllllllllllllllllllllllllllllllllllllllllllllllllllllllllllllllllllllllllllllllllllllllllllllllllllllllllllllllllllllllllllllllllllllllllllllllllllx",
"cllllllllllllllllllllllllllllllllllllllllllllllllllllllllllllllllllllllllllllllllllllllllllllllllllllllllllllllllllllllllllllllllllllllllllllllllllllllllllllllllllllllllllllllllllllllllllllllllllllllllx",
"cllllllllllllllllllllllllllllllllllllllllllllllllllllllllllllllllllllllllllllllllllllllllllllllllllllllllllllllllllllllllllllllllllllllllllllllllllllllllllllllllllllllllllllllllllllllllllllllllllllllllx",
"cllllllllllllllllllllllllllllllllllllllllllllllllllllllllllllllllllllllllllllllllllllllllllllllllllllllllllllllllllllllllllllllllllllllllllllllllllllllllllllllllllllllllllllllllllllllllllllllllllllllllx",
"cllllllllllllllllllllllllllllllllllllllllllllllllllllllllllllllllllllllllllllllllllllllllllllllllllllllllllllllllllllllllllllllllllllllllllllllllllllllllllllllllllllllllllllllllllllllllllllllllllllllllx",
"cllllllllllllllllllllllllllllllllllllllllllllllllllllllllllllllllllllllllllllllllllllllllllllllllllllllllllllllllllllllllllllllllllllllllllllllllllllllllllllllllllllllllllllllllllllllllllllllllllllllllx",
"cllllllllllllllllllllllllllllllllllllllllllllllllllllllllllllllllllllllllllllllllllllllllllllllllllllllllllllllllllllllllllllllllllllllllllllllllllllllllllllllllllllllllllllllllllllllllllllllllllllllllx",
"cllllllllllllllllllllllllllllllllllllllllllllllllllllllllllllllllllllllllllllllllllllllllllllllllllllllllllllllllllllllllllllllllllllllllllllllllllllllllllllllllllllllllllllllllllllllllllllllllllllllllx",
"cllllllllllllllllllllllllllllllllllllllllllllllllllllllllllllllllllllllllllllllllllllllllllllllllllllllllllllllllllllllllllllllllllllllllllllllllllllllllllllllllllllllllllllllllllllllllllllllllllllllllx",
"cllllllllllllllllllllllllllllllllllllllllllllllllllllllllllllllllllllllllllllllllllllllllllllllllllllllllllllllllllllllllllllllllllllllllllllllllllllllllllllllllllllllllllllllllllllllllllllllllllllllllx",
"cllllllllllllllllllllllllllllllllllllllllllllllllllllllllllllllllllllllllllllllllllllllllllllllllllllllllllllllllllllllllllllllllllllllllllllllllllllllllllllllllllllllllllllllllllllllllllllllllllllllllx",
"cllllllllllllllllllllllllllllllllllllllllllllllllllllllllllllllllllllllllllllllllllllllllllllllllllllllllllllllllllllllllllllllllllllllllllllllllllllllllllllllllllllllllllllllllllllllllllllllllllllllllx",
"cllllllllllllllllllllllllllllllllllllllllllllllllllllllllllllllllllllllllllllllllllllllllllllllllllllllllllllllllllllllllllllllllllllllllllllllllllllllllllllllllllllllllllllllllllllllllllllllllllllllllx",
"cllllllllllllllllllllllllllllllllllllllllllllllllllllllllllllllllllllllllllllllllllllllllllllllllllllllllllllllllllllllllllllllllllllllllllllllllllllllllllllllllllllllllllllllllllllllllllllllllllllllllx",
"cllllllllllllllllllllllllllllllllllllllllllllllllllllllllllllllllllllllllllllllllllllllllllllllllllllllllllllllllllllllllllllllllllllllllllllllllllllllllllllllllllllllllllllllllllllllllllllllllllllllllx",
"cllllllllllllllllllllllllllllllllllllllllllllllllllllllllllllllllllllllllllllllllllllllllllllllllllllllllllllllllllllllllllllllllllllllllllllllllllllllllllllllllllllllllllllllllllllllllllllllllllllllllx",
"cllllllllllllllllllllllllllllllllllllllllllllllllllllllllllllllllllllllllllllllllllllllllllllllllllllllllllllllllllllllllllllllllllllllllllllllllllllllllllllllllllllllllllllllllllllllllllllllllllllllllx",
"cllllllllllllllllllllllllllllllllllllllllllllllllllllllllllllllllllllllllllllllllllllllllllllllllllllllllllllllllllllllllllllllllllllllllllllllllllllllllllllllllllllllllllllllllllllllllllllllllllllllllx",
"cllllllllllllllllllllllllllllllllllllllllllllllllllllllllllllllllllllllllllllllllllllllllllllllllllllllllllllllllllllllllllllllllllllllllllllllllllllllllllllllllllllllllllllllllllllllllllllllllllllllllx",
"cllllllllllllllllllllllllllllllllllllllllllllllllllllllllllllllllllllllllllllllllllllllllllllllllllllllllllllllllllllllllllllllllllllllllllllllllllllllllllllllllllllllllllllllllllllllllllllllllllllllllx",
"cllllllllllllllllllllllllllllllllllllllllllllllllllllllllllllllllllllllllllllllllllllllllllllllllllllllllllllllllllllllllllllllllllllllllllllllllllllllllllllllllllllllllllllllllllllllllllllllllllllllllx",
"cllllllllllllllllllllllllllllllllllllllllllllllllllllllllllllllllllllllllllllllllllllllllllllllllllllllllllllllllllllllllllllllllllllllllllllllllllllllllllllllllllllllllllllllllllllllllllllllllllllllllx",
"cllllllllllllllllllllllllllllllllllllllllllllllllllllllllllllllllllllllllllllllllllllllllllllllllllllllllllllllllllllllllllllllllllllllllllllllllllllllllllllllllllllllllllllllllllllllllllllllllllllllllx",
"cllllllllllllllllllllllllllllllllllllllllllllllllllllllllllllllllllllllllllllllllllllllllllllllllllllllllllllllllllllllllllllllllllllllllllllllllllllllllllllllllllllllllllllllllllllllllllllllllllllllllx",
"cllllllllllllllllllllllllllllllllllllllllllllllllllllllllllllllllllllllllllllllllllllllllllllllllllllllllllllllllllllllllllllllllllllllllllllllllllllllllllllllllllllllllllllllllllllllllllllllllllllllllx",
"cllllllllllllllllllllllllllllllllllllllllllllllllllllllllllllllllllllllllllllllllllllllllllllllllllllllllllllllllllllllllllllllllllllllllllllllllllllllllllllllllllllllllllllllllllllllllllllllllllllllllx",
"cllllllllllllllllllllllllllllllllllllllllllllllllllllllllllllllllllllllllllllllllllllllllllllllllllllllllllllllllllllllllllllllllllllllllllllllllllllllllllllllllllllllllllllllllllllllllllllllllllllllllx",
"cllllllllllllllllllllllllllllllllllllllllllllllllllllllllllllllllllllllllllllllllllllllllllllllllllllllllllllllllllllllllllllllllllllllllllllllllllllllllllllllllllllllllllllllllllllllllllllllllllllllllx",
"cllllllllllllllllllllllllllllllllllllllllllllllllllllllllllllllllllllllllllllllllllllllllllllllllllllllllllllllllllllllllllllllllllllllllllllllllllllllllllllllllllllllllllllllllllllllllllllllllllllllllx",
"cllllllllllllllllllllllllllllllllllllllllllllllllllllllllllllllllllllllllllllllllllllllllllllllllllllllllllllllllllllllllllllllllllllllllllllllllllllllllllllllllllllllllllllllllllllllllllllllllllllllllx",
"cllllllllllllllllllllllllllllllllllllllllllllllllllllllllllllllllllllllllllllllllllllllllllllllllllllllllllllllllllllllllllllllllllllllllllllllllllllllllllllllllllllllllllllllllllllllllllllllllllllllllx",
"cllllllllllllllllllllllllllllllllllllllllllllllllllllllllllllllllllllllllllllllllllllllllllllllllllllllllllllllllllllllllllllllllllllllllllllllllllllllllllllllllllllllllllllllllllllllllllllllllllllllllx",
"cllllllllllllllllllllllllllllllllllllllllllllllllllllllllllllllllllllllllllllllllllllllllllllllllllllllllllllllllllllllllllllllllllllllllllllllllllllllllllllllllllllllllllllllllllllllllllllllllllllllllx",
"cllllllllllllllllllllllllllllllllllllllllllllllllllllllllllllllllllllllllllllllllllllllllllllllllllllllllllllllllllllllllllllllllllllllllllllllllllllllllllllllllllllllllllllllllllllllllllllllllllllllllx",
"cllllllllllllllllllllllllllllllllllllllllllllllllllllllllllllllllllllllllllllllllllllllllllllllllllllllllllllllllllllllllllllllllllllllllllllllllllllllllllllllllllllllllllllllllllllllllllllllllllllllllx",
"cllllllllllllllllllllllllllllllllllllllllllllllllllllllllllllllllllllllllllllllllllllllllllllllllllllllllllllllllllllllllllllllllllllllllllllllllllllllllllllllllllllllllllllllllllllllllllllllllllllllllx",
"cllllllllllllllllllllllllllllllllllllllllllllllllllllllllllllllllllllllllllllllllllllllllllllllllllllllllllllllllllllllllllllllllllllllllllllllllllllllllllllllllllllllllllllllllllllllllllllllllllllllllx",
"cllllllllllllllllllllllllllllllllllllllllllllllllllllllllllllllllllllllllllllllllllllllllllllllllllllllllllllllllllllllllllllllllllllllllllllllllllllllllllllllllllllllllllllllllllllllllllllllllllllllllx",
"cllllllllllllllllllllllllllllllllllllllllllllllllllllllllllllllllllllllllllllllllllllllllllllllllllllllllllllllllllllllllllllllllllllllllllllllllllllllllllllllllllllllllllllllllllllllllllllllllllllllllx",
"czzzzzzzzzzzzzzzzzzzzzzzzzzzzzzzzzzzzzzzzzzzzzzzzzzzzzzzzzzzzzzzzzzzzzzzzzzzzzzzzzzzzzzzzzzzzzzzzzzzzzzzzzzzzzzzzzzzzzzzzzzzzzzzzzzzzzzzzzzzzzzzzzzzzzzzzzzzzzzzzzzzzzzzzzzzzzzzzzzzzzzzzzzzzzzzzzzzzzzzzx"
};
