/* XPM */
static const char *basic1_EA[] = {
/* columns rows colors chars-per-pixel */
"202 202 11 1 ",
"  c black",
". c #00060F",
"X c #000A15",
"o c #001B2D",
"O c #003D5D",
"+ c #003F61",
"@ c #00496F",
"# c #004B72",
"$ c #E6E6E6",
"% c gray95",
"& c white",
/* pixels */
"&&&&&&&&&&&&&&&&&&&&&&&&&&&&&&&&&&&&&&&&&&&&&&&&&&&&&&&&&&&&&&&&&&&&&&&&&&&&&&&&&&&&&&&&&&&&&&&&&&&&&&&&&&&&&&&&&&&&&&&&&&&&&&&&&&&&&&&&&&&&&&&&&&&&&&&&&&&&&&&&&&&&&&&&&&&&&&&&&&&&&&&&&&&&&&&&&&&&&&&&&&",
"&########################################################################################################################################################################################################%",
"&########################################################################################################################################################################################################%",
"&########################################################################################################################################################################################################%",
"&########################################################################################################################################################################################################%",
"&########################################################################################################################################################################################################%",
"&########################################################################################################################################################################################################%",
"&########################################################################################################################################################################################################%",
"&########################################################################################################################################################################################################%",
"&########################################################################################################################################################################################################%",
"&########################################################################################################################################################################################################%",
"&########################################################################################################################################################################################################%",
"&########################################################################################################################################################################################################%",
"&########################################################################################################################################################################################################%",
"&########################################################################################################################################################################################################%",
"&########################################################################################################################################################################################################%",
"&########################################################################################################################################################################################################%",
"&########################################################################################################################################################################################################%",
"&########################################################################################################################################################################################################%",
"&########################################################################################################################################################################################################%",
"&########################################################################################################################################################################################################%",
"&########################################################################################################################################################################################################%",
"&########################################################################################################################################################################################################%",
"&########################################################################################################################################################################################################%",
"&########################################################################################################################################################################################################%",
"&########################################################################################################################################################################################################%",
"&########################################################################################################################################################################################################%",
"&########################################################################################################################################################################################################%",
"&########################################################################################################################################################################################################%",
"&########################################################################################################################################################################################################%",
"&########################################################################################################################################################################################################%",
"&########################################################################################################################################################################################################%",
"&########################################################################################################################################################################################################%",
"&########################################################################################################################################################################################################%",
"&########################################################################################################################################################################################################%",
"&########################################################################################################################################################################################################%",
"&########################################################################################################################################################################################################%",
"&########################################################################################################################################################################################################%",
"&########################################################################################################################################################################################################%",
"&########################################################################################################################################################################################################%",
"&########################################################################################################################################################################################################%",
"&########################################################################################################################################################################################################%",
"&########################################################################################################################################################################################################%",
"&########################################################################################################################################################################################################%",
"&########################################################################################################################################################################################################%",
"&########################################################################################################################################################################################################%",
"&########################################################################################################################################################################################################%",
"&########################################################################################################################################################################################################%",
"&########################################################################################################################################################################################################%",
"&########################################################################################################################################################################################################%",
"&########################################################################################################################################################################################################%",
"&########################################################################################################################################################################################################%",
"&########################################################################################################################################################################################################%",
"&########################################################################################################################################################################################################%",
"&########################################################################################################################################################################################################%",
"&########################################################################################################################################################################################################%",
"&########################################################################################################################################################################################################%",
"&########################################################################################################################################################################################################%",
"&########################################################################################################################################################################################################%",
"&########################################################################################################################################################################################################%",
"&########################################################################################################################################################################################################%",
"&########################################################################################################################################################################################################%",
"&########################################################################################################################################################################################################%",
"&########################################################################################################################################################################################################%",
"&########################################################################################################################################################################################################%",
"&########################################################################################################################################################################################################%",
"&##############################################################################@                                       o#################################################################################%",
"&##############################################################################@                                       o#################################################################################%",
"&##############################################################################@                                       o#################################################################################%",
"&##############################################################################@                                       o#################################################################################%",
"&##############################################################################@                                       o#################################################################################%",
"&##############################################################################@                                       o#################################################################################%",
"&##############################################################################@                                       o#################################################################################%",
"&##############################################################################@        .OOOOOOOOOOOOOOOOOOOOOOOOOOOOOO+#################################################################################%",
"&##############################################################################@        X################################################################################################################%",
"&##############################################################################@        X################################################################################################################%",
"&##############################################################################@        X################################################################################################################%",
"&##############################################################################@        X################################################################################################################%",
"&##############################################################################@        X################################################################################################################%",
"&##############################################################################@        X################################################################################################################%",
"&##############################################################################@        X################################################################################################################%",
"&##############################################################################@        X################################################################################################################%",
"&##############################################################################@        X################################################################################################################%",
"&##############################################################################@        X################################################################################################################%",
"&##############################################################################@        X################################################################################################################%",
"&##############################################################################@        X################################################################################################################%",
"&##############################################################################@        X################################################################################################################%",
"&##############################################################################@        X################################################################################################################%",
"&##############################################################################@        X################################################################################################################%",
"&##############################################################################@        X################################################################################################################%",
"&##############################################################################@        X################################################################################################################%",
"&##############################################################################@        X################################################################################################################%",
"&##############################################################################@        X################################################################################################################%",
"&##############################################################################@        X################################################################################################################%",
"&##############################################################################@        X################################################################################################################%",
"&##############################################################################@        X################################################################################################################%",
"&##############################################################################@        .OOOOOOOOOOOOOOOOOOOOOOOOOOOOO###################################################################################%",
"&##############################################################################@                                      @##################################################################################%",
"&##############################################################################@                                      @##################################################################################%",
"&##############################################################################@                                      @##################################################################################%",
"&##############################################################################@                                      @##################################################################################%",
"&##############################################################################@                                      @##################################################################################%",
"&##############################################################################@                                      @##################################################################################%",
"&##############################################################################@                                      @##################################################################################%",
"&##############################################################################@        X################################################################################################################%",
"&##############################################################################@        X################################################################################################################%",
"&##############################################################################@        X################################################################################################################%",
"&##############################################################################@        X################################################################################################################%",
"&##############################################################################@        X################################################################################################################%",
"&##############################################################################@        X################################################################################################################%",
"&##############################################################################@        X################################################################################################################%",
"&##############################################################################@        X################################################################################################################%",
"&##############################################################################@        X################################################################################################################%",
"&##############################################################################@        X################################################################################################################%",
"&##############################################################################@        X################################################################################################################%",
"&##############################################################################@        X################################################################################################################%",
"&##############################################################################@        X################################################################################################################%",
"&##############################################################################@        X################################################################################################################%",
"&##############################################################################@        X################################################################################################################%",
"&##############################################################################@        X################################################################################################################%",
"&##############################################################################@        X################################################################################################################%",
"&##############################################################################@        X################################################################################################################%",
"&##############################################################################@        X################################################################################################################%",
"&##############################################################################@        X################################################################################################################%",
"&##############################################################################@        X################################################################################################################%",
"&##############################################################################@        X################################################################################################################%",
"&##############################################################################@        X################################################################################################################%",
"&##############################################################################@        X################################################################################################################%",
"&##############################################################################@        X################################################################################################################%",
"&##############################################################################@        X################################################################################################################%",
"&##############################################################################@        .OOOOOOOOOOOOOOOOOOOOOOOOOOOOOO+#################################################################################%",
"&##############################################################################@                                       o#################################################################################%",
"&##############################################################################@                                       o#################################################################################%",
"&##############################################################################@                                       o#################################################################################%",
"&##############################################################################@                                       o#################################################################################%",
"&##############################################################################@                                       o#################################################################################%",
"&##############################################################################@                                       o#################################################################################%",
"&##############################################################################@                                       o#################################################################################%",
"&########################################################################################################################################################################################################%",
"&########################################################################################################################################################################################################%",
"&########################################################################################################################################################################################################%",
"&########################################################################################################################################################################################################%",
"&########################################################################################################################################################################################################%",
"&########################################################################################################################################################################################################%",
"&########################################################################################################################################################################################################%",
"&########################################################################################################################################################################################################%",
"&########################################################################################################################################################################################################%",
"&########################################################################################################################################################################################################%",
"&########################################################################################################################################################################################################%",
"&########################################################################################################################################################################################################%",
"&########################################################################################################################################################################################################%",
"&########################################################################################################################################################################################################%",
"&########################################################################################################################################################################################################%",
"&########################################################################################################################################################################################################%",
"&########################################################################################################################################################################################################%",
"&########################################################################################################################################################################################################%",
"&########################################################################################################################################################################################################%",
"&########################################################################################################################################################################################################%",
"&########################################################################################################################################################################################################%",
"&########################################################################################################################################################################################################%",
"&########################################################################################################################################################################################################%",
"&########################################################################################################################################################################################################%",
"&########################################################################################################################################################################################################%",
"&########################################################################################################################################################################################################%",
"&########################################################################################################################################################################################################%",
"&########################################################################################################################################################################################################%",
"&########################################################################################################################################################################################################%",
"&########################################################################################################################################################################################################%",
"&########################################################################################################################################################################################################%",
"&########################################################################################################################################################################################################%",
"&########################################################################################################################################################################################################%",
"&########################################################################################################################################################################################################%",
"&########################################################################################################################################################################################################%",
"&########################################################################################################################################################################################################%",
"&########################################################################################################################################################################################################%",
"&########################################################################################################################################################################################################%",
"&########################################################################################################################################################################################################%",
"&########################################################################################################################################################################################################%",
"&########################################################################################################################################################################################################%",
"&########################################################################################################################################################################################################%",
"&########################################################################################################################################################################################################%",
"&########################################################################################################################################################################################################%",
"&########################################################################################################################################################################################################%",
"&########################################################################################################################################################################################################%",
"&########################################################################################################################################################################################################%",
"&########################################################################################################################################################################################################%",
"&########################################################################################################################################################################################################%",
"&########################################################################################################################################################################################################%",
"&########################################################################################################################################################################################################%",
"&########################################################################################################################################################################################################%",
"&########################################################################################################################################################################################################%",
"&########################################################################################################################################################################################################%",
"&########################################################################################################################################################################################################%",
"&########################################################################################################################################################################################################%",
"&########################################################################################################################################################################################################%",
"&########################################################################################################################################################################################################%",
"&########################################################################################################################################################################################################%",
"&########################################################################################################################################################################################################%",
"&########################################################################################################################################################################################################%",
"&########################################################################################################################################################################################################%",
"&########################################################################################################################################################################################################%",
"&$$$$$$$$$$$$$$$$$$$$$$$$$$$$$$$$$$$$$$$$$$$$$$$$$$$$$$$$$$$$$$$$$$$$$$$$$$$$$$$$$$$$$$$$$$$$$$$$$$$$$$$$$$$$$$$$$$$$$$$$$$$$$$$$$$$$$$$$$$$$$$$$$$$$$$$$$$$$$$$$$$$$$$$$$$$$$$$$$$$$$$$$$$$$$$$$$$$$$$$$%"
};
